resources/svg/brands/firstdraft.svg

<svg fill="currentColor" xmlns="http://www.w3.org/2000/svg" viewBox="0 0 384 512"><!--! Font Awesome Free 7.0.0 by @fontawesome - https://fontawesome.com License - https://fontawesome.com/license/free (Icons: CC BY 4.0, Fonts: SIL OFL 1.1, Code: MIT License) Copyright 2025 Fonticons, Inc. --><path fill="currentColor" d="M384 192l-64 0 0 128-128 0 0 128-192 0 0-25.6 166.4 0 0-128 128 0 0-128 89.6 0 0 25.6zm-25.6 38.4l0 128-128 0 0 128-166.4 0 0 25.6 192 0 0-128 128 0 0-153.6-25.6 0zm25.6 192l-89.6 0 0 89.6 25.6 0 0-64 64 0 0-25.6zM0 0l0 384 128 0 0-128 128 0 0-128 128 0 0-128-384 0z"/></svg>

<svg fill="currentColor" xmlns="http://www.w3.org/2000/svg" viewBox="0 0 384 512"><!--! Font Awesome Free 6.7.2 by @fontawesome - https://fontawesome.com License - https://fontawesome.com/license/free (Icons: CC BY 4.0, Fonts: SIL OFL 1.1, Code: MIT License) Copyright 2024 Fonticons, Inc. --><path d="M384 192h-64v128H192v128H0v-25.6h166.4v-128h128v-128H384V192zm-25.6 38.4v128h-128v128H64V512h192V384h128V230.4h-25.6zm25.6 192h-89.6V512H320v-64h64v-25.6zM0 0v384h128V256h128V128h128V0H0z"/></svg>
